docs/local/img/sprites/doc.svg

<svg width="32" height="26" viewBox="0 0 32 26" xmlns="http://www.w3.org/2000/svg">
<path d="M9.88425 16.5115V16.4837C9.88394 15.8199 9.74736 15.1631 9.48296 14.5541C9.21856 13.9452 8.83197 13.3969 8.34713 12.9434C7.86228 12.4899 7.28951 12.1407 6.66426 11.9175C6.03901 11.6943 5.37461 11.6019 4.71217 11.6458H1.98759C1.84676 11.6449 1.70715 11.6719 1.57687 11.7254C1.4466 11.7789 1.32826 11.8578 1.22873 11.9574C1.12921 12.0571 1.05048 12.1755 0.997141 12.3059C0.943797 12.4362 0.916897 12.5758 0.918005 12.7167V20.3071C0.91684 20.4479 0.943706 20.5875 0.997037 20.7179C1.05037 20.8482 1.1291 20.9666 1.22864 21.0662C1.32819 21.1658 1.44656 21.2446 1.57685 21.298C1.70715 21.3514 1.84677 21.3784 1.98759 21.3773H4.71217C5.37624 21.4183 6.04166 21.3228 6.66742 21.0967C7.29318 20.8707 7.86601 20.5189 8.35059 20.063C8.83518 19.6071 9.22126 19.0568 9.48503 18.446C9.7488 17.8351 9.88466 17.1768 9.88425 16.5115ZM7.64634 16.5392C7.66563 16.9283 7.60273 17.3171 7.46173 17.6803C7.32073 18.0434 7.10479 18.3728 6.82798 18.647C6.55118 18.9211 6.21972 19.1339 5.8552 19.2714C5.49068 19.4089 5.10129 19.468 4.71238 19.445H3.05842V13.5781H4.71217C5.10268 13.5582 5.49303 13.6204 5.85799 13.7608C6.22294 13.9012 6.55439 14.1166 6.8309 14.393C7.10741 14.6695 7.32284 15.0009 7.46327 15.3659C7.60369 15.7308 7.66599 16.1211 7.64613 16.5117L7.64634 16.5392Z"/>
<path d="M16.5529 11.4792C15.8792 11.4586 15.2083 11.5735 14.5799 11.8172C13.9515 12.0608 13.3785 12.4283 12.8948 12.8976C12.4112 13.367 12.0267 13.9287 11.7643 14.5495C11.5019 15.1703 11.3669 15.8375 11.3672 16.5114V16.5392C11.3642 17.2102 11.4967 17.875 11.7568 18.4936C12.0168 19.1122 12.3991 19.6719 12.8807 20.1393C13.3622 20.6066 13.9332 20.9719 14.5593 21.2133C15.1854 21.4548 15.8539 21.5673 16.5245 21.5442C17.1982 21.5647 17.8691 21.4497 18.4975 21.206C19.1259 20.9623 19.6989 20.5948 20.1826 20.1254C20.6662 19.656 21.0507 19.0942 21.3131 18.4734C21.5755 17.8526 21.7105 17.1854 21.7102 16.5114V16.4837C21.7132 15.8127 21.5807 15.148 21.3206 14.5294C21.0605 13.9108 20.6783 13.3511 20.1967 12.8837C19.7151 12.4164 19.1442 12.0512 18.518 11.8098C17.8919 11.5684 17.2235 11.456 16.5529 11.4792ZM19.4722 16.5392C19.4885 16.9321 19.425 17.3243 19.2855 17.6921C19.146 18.0598 18.9334 18.3955 18.6605 18.6787C18.3877 18.962 18.0602 19.187 17.698 19.3402C17.3357 19.4934 16.9462 19.5716 16.5529 19.57C16.1566 19.5691 15.7645 19.4885 15.4 19.3331C15.0355 19.1777 14.7059 18.9505 14.4309 18.6652C14.1559 18.3799 13.941 18.0422 13.7991 17.6722C13.6572 17.3022 13.5911 16.9075 13.6047 16.5114V16.4837C13.5884 16.0908 13.6519 15.6986 13.7914 15.3309C13.9309 14.9631 14.1435 14.6275 14.4164 14.3442C14.6892 14.061 15.0166 13.8359 15.3789 13.6827C15.7411 13.5295 16.1306 13.4514 16.5239 13.4529C16.9201 13.4541 17.312 13.5349 17.6764 13.6904C18.0407 13.8459 18.3702 14.0731 18.6451 14.3583C18.92 14.6436 19.1348 14.9812 19.2768 15.351C19.4188 15.7209 19.485 16.1155 19.4716 16.5114L19.4722 16.5392Z"/>
<path d="M30.9973 18.5689C30.7631 18.5704 30.5368 18.6541 30.3579 18.8054C29.7728 19.3139 29.0194 19.5866 28.2444 19.5702C27.856 19.5616 27.4734 19.4749 27.1193 19.3151C26.7653 19.1554 26.447 18.9259 26.1836 18.6404C25.9202 18.3549 25.717 18.0193 25.5862 17.6535C25.4554 17.2878 25.3997 16.8994 25.4223 16.5117V16.4839C25.4024 16.0982 25.4603 15.7123 25.5924 15.3493C25.7246 14.9863 25.9283 14.6536 26.1916 14.3709C26.4548 14.0882 26.7721 13.8612 27.1248 13.7035C27.4774 13.5458 27.8582 13.4606 28.2444 13.4529C28.9665 13.4538 29.667 13.699 30.2321 14.1485C30.4193 14.2811 30.6423 14.3537 30.8717 14.3569C31.0097 14.3585 31.1466 14.3328 31.2746 14.2812C31.4026 14.2296 31.5191 14.1532 31.6174 14.0563C31.7157 13.9595 31.7938 13.8441 31.8473 13.7169C31.9008 13.5897 31.9285 13.4532 31.929 13.3152C31.9289 13.1513 31.8912 12.9895 31.8188 12.8424C31.7464 12.6953 31.6412 12.5669 31.5113 12.4669C30.5701 11.7795 29.4236 11.4317 28.2592 11.4802C27.5916 11.4626 26.9273 11.5805 26.3065 11.8266C25.6856 12.0728 25.1211 12.4421 24.6469 12.9124C24.1726 13.3826 23.7986 13.944 23.5472 14.5628C23.2959 15.1815 23.1724 15.8447 23.1844 16.5125V16.5402C23.2072 17.5091 23.5041 18.4517 24.0408 19.2588C24.5774 20.0658 25.3318 20.7042 26.2165 21.1C27.1012 21.4958 28.08 21.6328 29.0393 21.495C29.9987 21.3572 30.8993 20.9504 31.6369 20.3217C31.7951 20.1917 31.9091 20.0158 31.963 19.8183C32.0169 19.6208 32.0082 19.4114 31.938 19.2191C31.8677 19.0268 31.7395 18.861 31.571 18.7448C31.4025 18.6285 31.202 18.5664 30.9973 18.5689Z"/>
<path d="M9.06402 2.58729H19.9334V5.53124C19.9334 5.80751 20.0431 6.07246 20.2385 6.26781C20.4338 6.46316 20.6988 6.57291 20.9751 6.57291H23.919V9.05208H26.0024V5.53124C26.0008 5.29877 25.9516 5.06907 25.8579 4.85634C25.7641 4.64361 25.6277 4.45235 25.4571 4.29437L22.1613 1.04437C22.0134 0.875052 21.8311 0.739176 21.6266 0.64578C21.4221 0.552384 21.2001 0.503609 20.9753 0.502701H8.80653C8.31986 0.505786 7.85429 0.701793 7.51195 1.04772C7.16962 1.39364 6.97849 1.86124 6.98048 2.34791V9.05166H9.06382L9.06402 2.58729Z"/>
<path d="M6.98047 23.6667C6.97948 24.1523 7.17119 24.6185 7.51354 24.9629C7.85589 25.3073 8.3209 25.5018 8.80651 25.5037H24.1711C24.6574 25.5025 25.1233 25.3083 25.4666 24.9639C25.8099 24.6195 26.0025 24.1529 26.0021 23.6667V23.4204H6.98131L6.98047 23.6667Z"/>
</svg>

<svg width="32" height="26" viewBox="0 0 32 26" xmlns="http://www.w3.org/2000/svg"><path d="M9.884 16.512v-.028a4.851 4.851 0 00-5.172-4.838H1.988a1.063 1.063 0 00-1.07 1.07v7.591a1.062 1.062 0 001.07 1.07h2.724a4.87 4.87 0 005.172-4.865zm-2.238.027a2.774 2.774 0 01-2.934 2.906H3.058v-5.867h1.654a2.795 2.795 0 012.934 2.934v.027zm8.907-5.059a5.031 5.031 0 00-5.186 5.031v.028a4.985 4.985 0 005.157 5.005 5.033 5.033 0 005.186-5.033v-.027a4.985 4.985 0 00-5.157-5.005zm2.92 5.06a2.91 2.91 0 01-2.92 3.03 2.957 2.957 0 01-2.948-3.059v-.027a2.91 2.91 0 012.919-3.031 2.96 2.96 0 012.948 3.058v.028zm11.524 2.029a1 1 0 00-.64.236 3.121 3.121 0 01-2.113.765 2.89 2.89 0 01-2.822-3.058v-.028a2.884 2.884 0 012.822-3.031 3.2 3.2 0 011.988.696c.187.132.41.205.64.208a1.045 1.045 0 00.947-1.515 1.07 1.07 0 00-.308-.375 5.15 5.15 0 00-3.252-.987 4.945 4.945 0 00-5.075 5.032v.028a5.127 5.127 0 008.453 3.782.989.989 0 00-.64-1.753zM9.064 2.587h10.87v2.944a1.041 1.041 0 001.041 1.042h2.944v2.48h2.083V5.53a1.703 1.703 0 00-.545-1.237l-3.296-3.25a1.583 1.583 0 00-1.186-.541H8.807A1.838 1.838 0 006.98 2.348v6.704h2.084V2.587zM6.98 23.667a1.833 1.833 0 001.827 1.837H24.17a1.836 1.836 0 001.831-1.837v-.247H6.982l-.002.247z"/></svg>
